X: 7786
T: Come In From The Rain
R: slide
M: 12/8
K: Edorian
d|:B2"r"EE2 "c"E dcd A2G|F2D DAD EFG A2A|
B2E BEB d3 e2f|1 gfe fed e3 e2d:|2 gfe fed e3 e2f||
|:gfe b2e gfe b2e|f2d A2d f2g a2a|
gfe b2e gfe b2e|1 fed Bcd e3 e2f:|2 fed Bcd e3 e2d||

